X:167
T:Hardiman the Fiddler
M:9/8
L:1/8
R:slipjig
K:G
A2G FDE F2G|~A3 AGA cAG|A2G FDE F2G|A.d.d .ded cAG:|
A.d.d .d2e ~f3|A.d.d .ded cAG|A.d.d .d2e f2g|agf ged cAG|
A.d.d .d2e ~f3|A.d.d .ded cAG|dcA (3.B.c.de f2g|agf ged cAG|
